X: 12731
T: Father Kelly's
R: reel
M: 4/4
K: Gmajor
dedB cBAB|G2 (3BAG DG (3BAG|AGAB cBAG|EAAG ABce|
dedB cBAB|G2 (3BAG DG (3BAG|AGAB cdef|gdcA BGGB:|
|:dggf edBd|eaab ageg|fdad bdad|g3e dcBc|
dggf gdBd|eaab agef|g3e dcBc|dBcA BGGB:|

